assets/images/mail.svg

<svg enable-background="new 0 0 22 17" viewBox="0 0 22 17" xmlns="http://www.w3.org/2000/svg"><path d="m2.9 1.8h16.3c.5 0 .9.4 1 .8l-9.1 7.2-9.3-7.2c.1-.4.5-.8 1.1-.8zm5.5 8.3 2.1 1.6c.2.1.4.2.5.2.2 0 .4-.1.6-.2l2.1-1.7 5.2 4.9h-15.6zm-6.6 3.8v-9l5.2 4.1zm18.4-.2-5.1-4.8 5.1-4zm1.8-10.8c0-1.6-1.3-2.9-2.9-2.9h-16.2c-1.6 0-2.9 1.3-2.9 2.9v11c0 .7.3 1.4.7 1.9 0 .1.1.1.1.2.1.1.2.2.3.2.5.3 1 .5 1.7.5h16.3c.7 0 1.3-.2 1.7-.6.1 0 .3-.1.4-.2s.2-.2.2-.3c.3-.5.5-1.1.5-1.7v-11z" fill="#4d4545"/></svg>

<?xml version="1.0" encoding="utf-8"?>
<!-- Generator: Adobe Illustrator 21.0.2, SVG Export Plug-In . SVG Version: 6.00 Build 0)  -->
<svg version="1.1" id="Layer_1" xmlns="http://www.w3.org/2000/svg" xmlns:xlink="http://www.w3.org/1999/xlink" x="0px" y="0px"
	 viewBox="0 0 22 17" style="enable-background:new 0 0 22 17;" xml:space="preserve">
<style type="text/css">
	.st0{fill:#4D4545;}
</style>
<path id="Fill-1" class="st0" d="M2.9,1.8h16.3c0.5,0,0.9,0.4,1,0.8l-9.1,7.2L1.8,2.6C1.9,2.2,2.3,1.8,2.9,1.8L2.9,1.8z M8.4,10.1
	l2.1,1.6c0.2,0.1,0.4,0.2,0.5,0.2c0.2,0,0.4-0.1,0.6-0.2l2.1-1.7l5.2,4.9H3.3L8.4,10.1z M1.8,13.9v-9L7,9L1.8,13.9
	C1.8,13.9,1.8,13.9,1.8,13.9L1.8,13.9z M20.2,13.7l-5.1-4.8l5.1-4V13.7z M22,2.9C22,1.3,20.7,0,19.1,0H2.9C1.3,0,0,1.3,0,2.9v11
	c0,0.7,0.3,1.4,0.7,1.9c0,0.1,0.1,0.1,0.1,0.2c0.1,0.1,0.2,0.2,0.3,0.2c0.5,0.3,1,0.5,1.7,0.5h16.3c0.7,0,1.3-0.2,1.7-0.6
	c0.1,0,0.3-0.1,0.4-0.2c0.1-0.1,0.2-0.2,0.2-0.3c0.3-0.5,0.5-1.1,0.5-1.7V2.9z"/>
</svg>
